svgs/sharp-light/square-w.svg

<svg xmlns="http://www.w3.org/2000/svg" viewBox="0 0 448 512"><!--! Font Awesome Pro 6.6.0 by @fontawesome - https://fontawesome.com License - https://fontawesome.com/license (Commercial License) Copyright 2024 Fonticons, Inc. --><path d="M32 64l0 384 384 0 0-384L32 64zM0 32l32 0 384 0 32 0 0 32 0 384 0 32-32 0L32 480 0 480l0-32L0 64 0 32zM72.6 144l33.6 0 54 171.2 48.7-152 6.1-19.1 18.2 0 6.1 19.1 48.7 152 54-171.2 33.6 0L303.3 372.8 299.7 384l-23.4 0-3.6-11.1L224 220.5 175.2 372.9 171.7 384l-23.4 0-3.5-11.2L72.6 144z"/></svg>

<svg xmlns="http://www.w3.org/2000/svg" viewBox="0 0 448 512"><!--! Font Awesome Pro 6.4.0 by @fontawesome - https://fontawesome.com License - https://fontawesome.com/license (Commercial License) Copyright 2023 Fonticons, Inc. --><path d="M32 64V448H416V64H32zM0 32H32 416h32V64 448v32H416 32 0V448 64 32zM72.6 144h33.6l54 171.2 48.7-152 6.1-19.1h18.2l6.1 19.1 48.7 152 54-171.2h33.6L303.3 372.8 299.7 384H276.3l-3.6-11.1L224 220.5 175.2 372.9 171.7 384H148.3l-3.5-11.2L72.6 144z"/></svg>
